assets/fc/fc-document.svg

<svg xmlns="http://www.w3.org/2000/svg" width="100%" height="100%" viewBox="0 0 48 48"><path fill="#90CAF9" d="M40 45H8V3h22l10 10z"/><path fill="#E1F5FE" d="M38.5 14H29V4.5z"/><g fill="#1976D2"><path d="M16 21h17v2H16zM16 25h13v2H16zM16 29h17v2H16zM16 33h13v2H16z"/></g></svg>

<svg xmlns="http://www.w3.org/2000/svg" width="100%" height="100%" viewBox="0 0 48 48"><path fill="#90CAF9" d="M40 45L8 45 8 3 30 3 40 13z"/><path fill="#E1F5FE" d="M38.5 14L29 14 29 4.5z"/><g fill="#1976D2"><path d="M16 21H33V23H16zM16 25H29V27H16zM16 29H33V31H16zM16 33H29V35H16z"/></g></svg>
